X:1
T:Pipe On The Hob
M:6/8
L:1/8
R:jig
K:DMix
A|"D"d^cd "Am7"A2G|"D"F2D DED|"C"EDE cBc|"Am7"E2D "D"DFA|
  "D"d^cB "A"cBA|"G"BAG "A"A2G|"C"EDE cBc|"Am"E2D "D"D2:|
e|"D"f2d d^cd|f2d d^cd|"C"e2c cBc|"C"e2c cBc|
"D"f2d d^cd|f2d d^cd|"C"ede age|"A"ed^c "D"d2e||
"D"f2d d^cd|f2d d^cd|"C"e2c cBc|"C"ede age|
"D"fef "C"gfg |"D/B"agf "Am7"gfe|"D"fed "C"eag|"A"ed^c "D"d2|]
